X: 1932
T: Tiger Nixon Waltz
B: australian traditional tunes wiki
M:3/4
L:1/8
R: Mazurka
Q: 1/4=100
K:D
V:1 
||"D"(3ABA A>G F>E|D2G2F2|"A"E3F (3GFE|"Em"B,6|"A"E3F (3GFE|"Em"B,4C2|"D"D3E (3FED|"A"A,4z2|
"D"(3ABA A>G F>E|D2G2F2|"A"E3F (3GFE|"Em"B,4zB,|"A"A,2A3^G|G2F2E2|"D"D3D"G"D2|"D"D4(3AB>c|
"D"d2B>A B>c|d2B>A B>c|d2A3A|A4zA|"A"A2C>D E>F|G2F2E2|"D"D2A3A|A3A B>c|
"D"d2B>A B>c|d2B>A B>c|d2A3A|A4zA|"A"A2C>D E>F|G2F2E2|"D"D3D"G"D2|"D"D4(3FG>^G:|
% abcbook-tune_id 6342d5be4a30b2fcdfeec1f2


% abcbook-boost 0
% abcbook-tablature 
% abcbook-transpose 
% abcbook-lastupdated 1665324488701
% abcbook-soundfonts 
% abcbook-repeats 1
% NFF Book 2016

